svgs/sharp-solid/barcode.svg

<svg xmlns="http://www.w3.org/2000/svg" viewBox="0 0 512 512"><!--! Font Awesome Pro 6.6.0 by @fontawesome - https://fontawesome.com License - https://fontawesome.com/license (Commercial License) Copyright 2024 Fonticons, Inc. --><path d="M64 32L0 32 0 480l64 0L64 32zm64 0L96 32l0 448 32 0 0-448zm96 0l-64 0 0 448 64 0 0-448zm96 0l-64 0 0 448 64 0 0-448zm128 0l0 448 64 0 0-448-64 0zm-64 0l0 448 32 0 0-448-32 0z"/></svg>

<svg xmlns="http://www.w3.org/2000/svg" viewBox="0 0 512 512"><!--! Font Awesome Pro 6.5.2 by @fontawesome - https://fontawesome.com License - https://fontawesome.com/license (Commercial License) Copyright 2024 Fonticons, Inc. --><path d="M64 32H0V480H64V32zm64 0H96V480h32V32zm96 0H160V480h64V32zm96 0H256V480h64V32zm128 0V480h64V32H448zm-64 0V480h32V32H384z"/></svg>
